web/ui/src/assets/svgs/index/alarm.svg

<svg height="24" viewBox="0 0 25 24" width="25" xmlns="http://www.w3.org/2000/svg"><g fill="none" fill-rule="evenodd" transform="translate(.836612)"><path d="m.163388 0h24v24h-24z" fill="#000" fill-rule="nonzero" opacity="0"/><path d="m12.2526911 19.2394595c2.0410194-.0445167 3.7392283-.7438591 5.0989476-2.0965912 1.3568386-1.3556042 2.058304-3.0486734 2.1029558-5.0835156-.0446518-2.0348423-.7461172-3.72791148-2.1029558-5.08207962-1.3597193-1.35416815-3.0579282-2.05351055-5.0989476-2.09659119-2.0410194.04308064-3.7392282.74242304-5.09750717 2.09659119-1.35827898 1.35416814-2.05974436 3.04723732-2.10295578 5.08351562.04321142 2.0334062.7446768 3.7264754 2.10295578 5.0806436 1.35827897 1.3541681 3.05648777 2.0535105 5.09894757 2.0980272zm0 1.4360213c-2.44576635-.0603129-4.48246462-.9018214-6.11009478-2.5245255-1.62763016-1.6227042-2.47169324-3.6532384-2.53218923-6.0916026.06049599-2.4383643.90455907-4.4688985 2.53218923-6.09160264s3.66432843-2.46421265 6.11009478-2.52452555c2.4457664.0603129 4.4824647.90182141 6.1100948 2.52452555 1.6276302 1.62270414 2.4716933 3.65323834 2.5321893 6.09160264-.060496 2.4383642-.9045591 4.4688984-2.5321893 6.0916026-1.6276301 1.6227041-3.6643284 2.4642126-6.1100948 2.5245255zm-4.95058834-1.5939837 1.26033309.7180107-1.08028551 1.8639557c-.13507545.2162317-.37551039.3442945-.63088673.336029-.252674.0098781-.48877822-.1251083-.60784065-.3475172-.13453495-.2143716-.14279184-.484378-.02160571-.7065225l1.08028551-1.8625197zm9.90261714 0-1.2603331.7180107 1.0802855 1.8639557c.1497996.2240194.3600952.336029.6294464.336029.2693511 0 .4724448-.1148817.6078406-.3475172.1349893-.2141096.1437968-.4841212.0230461-.7065225l-1.0802855-1.8625197zm-4.9520288-7.0221444h3.6009517c.2102956 0 .3831413.067493.5185371.201043.1339554.134986.2016532.3073085.2016532.5169676.0071327.1926679-.0658324.3797246-.2016532.5169677-.1376598.1354098-.3252843.2081541-.5185371.201043h-4.321142c-.1932528.0071111-.3808773-.0656332-.518537-.201043-.1358209-.1372431-.208786-.3242998-.2016533-.5169677v-5.02607471c0-.20965912.0676978-.38198168.2016533-.51696769.1376597-.13540979.3252842-.20815407.518537-.20104299.2102956 0 .3831413.067493.518537.20104299.1339554.13498601.2016533.30730857.2016533.51696769zm-9.49642975-4.48756678c-.45473341-.68894129-.65767766-1.51296716-.57471188-2.33353471.08210169-.82284024.43499496-1.54515898 1.05867979-2.16552021.62224445-.62036123 1.34675593-.97218646 2.17209405-1.05403968.82289014-.08313695 1.6494035.11868259 2.3406186.5715365l-1.0586798 1.0554757c-.40217719-.19169422-.85406217-.25440543-1.29346184-.17950267-.43847571.07247172-.84140803.28517288-1.1479834.60600102-.32264527.32884889-.52573894.71370261-.60784064 1.15456117-.08354208.44085856-.02736723.87166496.16852454 1.2909832l-1.03707409 1.05403968h-.02160571zm18.81425235 0c.4547334-.68894129.6576777-1.51296716.5747119-2.33353471-.0824616-.82223324-.4532823-1.58909062-1.0471568-2.16552021-.5733297-.60033574-1.3444805-.97454769-2.172094-1.05403968-.8265977-.08417357-1.6570863.11762319-2.3521417.5715365l1.0586798 1.0554757c.4191508-.1952989.8498246-.25417578 1.2934619-.17950267.4421969.07467311.8296593.2757161 1.1595064.60600102.3298472.32884889.5329409.71370261.6078407 1.15456117s.0144038.87166496-.1800476 1.2909832z" fill="#6b7b8d"/></g></svg>

<?xml version="1.0" encoding="UTF-8"?>
<svg width="25px" height="24px" viewBox="0 0 25 24" version="1.1" xmlns="http://www.w3.org/2000/svg" xmlns:xlink="http://www.w3.org/1999/xlink">
    <title>闹钟备份 2</title>
    <g id="页面-1" stroke="none" stroke-width="1" fill="none" fill-rule="evenodd">
        <g id="建木CI-列表（最新版本）" transform="translate(-1059.000000, -387.000000)">
            <g id="闹钟备份-2" transform="translate(1059.836612, 387.000000)">
                <rect id="矩形" fill="#000000" fill-rule="nonzero" opacity="0" x="0.163387527" y="0" width="24" height="24"></rect>
                <path d="M12.2526911,19.2394595 C14.2937105,19.1949428 15.9919194,18.4956004 17.3516387,17.1428683 C18.7084773,15.7872641 19.4099427,14.0941949 19.4545945,12.0593527 C19.4099427,10.0245104 18.7084773,8.33144122 17.3516387,6.97727308 C15.9919194,5.62310493 14.2937105,4.92376253 12.2526911,4.88068189 C10.2116717,4.92376253 8.5134629,5.62310493 7.15518393,6.97727308 C5.79690495,8.33144122 5.09543957,10.0245104 5.05222815,12.0607887 C5.09543957,14.0941949 5.79690495,15.7872641 7.15518393,17.1414323 C8.5134629,18.4956004 10.2116717,19.1949428 12.2541315,19.2394595 L12.2526911,19.2394595 Z M12.2526911,20.6754808 C9.80692475,20.6151679 7.77022648,19.7736594 6.14259632,18.1509553 C4.51496616,16.5282511 3.67090308,14.4977169 3.61040709,12.0593527 C3.67090308,9.6209884 4.51496616,7.5904542 6.14259632,5.96775006 C7.77022648,4.34504592 9.80692475,3.50353741 12.2526911,3.44322451 C14.6984575,3.50353741 16.7351558,4.34504592 18.3627859,5.96775006 C19.9904161,7.5904542 20.8344792,9.6209884 20.8949752,12.0593527 C20.8344792,14.4977169 19.9904161,16.5282511 18.3627859,18.1509553 C16.7351558,19.7736594 14.6984575,20.6151679 12.2526911,20.6754808 Z M7.30210276,19.0814971 L8.56243585,19.7995078 L7.48215034,21.6634635 C7.34707489,21.8796952 7.10663995,22.007758 6.85126361,21.9994925 C6.59858961,22.0093706 6.36248539,21.8743842 6.24342296,21.6519753 C6.10888801,21.4376037 6.10063112,21.1675973 6.22181725,20.9454528 L7.30210276,19.0829331 L7.30210276,19.0814971 Z M17.2047199,19.0814971 L15.9443868,19.7995078 L17.0246723,21.6634635 C17.1744719,21.8874829 17.3847675,21.9994925 17.6541187,21.9994925 C17.9234698,21.9994925 18.1265635,21.8846108 18.2619593,21.6519753 C18.3969486,21.4378657 18.4057561,21.1678541 18.2850054,20.9454528 L17.2047199,19.0829331 L17.2047199,19.0814971 Z M12.2526911,12.0593527 L15.8536428,12.0593527 C16.0639384,12.0593527 16.2367841,12.1268457 16.3721799,12.2603957 C16.5061353,12.3953817 16.5738331,12.5677042 16.5738331,12.7773633 C16.5809658,12.9700312 16.5080007,13.1570879 16.3721799,13.294331 C16.2345201,13.4297408 16.0468956,13.5024851 15.8536428,13.495374 L11.5325008,13.495374 C11.339248,13.5024851 11.1516235,13.4297408 11.0139638,13.294331 C10.8781429,13.1570879 10.8051778,12.9700312 10.8123105,12.7773633 L10.8123105,7.75128859 C10.8123105,7.54162947 10.8800083,7.36930691 11.0139638,7.2343209 C11.1516235,7.09891111 11.339248,7.02616683 11.5325008,7.03327791 C11.7427964,7.03327791 11.9156421,7.10077091 12.0510378,7.2343209 C12.1849932,7.36930691 12.2526911,7.54162947 12.2526911,7.75128859 L12.2526911,12.0593527 L12.2526911,12.0593527 Z M2.75626135,7.57178592 C2.30152794,6.88284463 2.09858369,6.05881876 2.18154947,5.23825121 C2.26365116,4.41541097 2.61654443,3.69309223 3.24022926,3.072731 C3.86247371,2.45236977 4.58698519,2.10054454 5.41232331,2.01869132 C6.23521345,1.93555437 7.06172681,2.13737391 7.75294191,2.59022782 L6.69426211,3.64570352 C6.29208492,3.4540093 5.84019994,3.39129809 5.40080027,3.46620085 C4.96232456,3.53867257 4.55939224,3.75137373 4.25281687,4.07220187 C3.9301716,4.40105076 3.72707793,4.78590448 3.64497623,5.22676304 C3.56143415,5.6676216 3.617609,6.098428 3.81350077,6.51774624 L2.77642668,7.57178592 L2.75482097,7.57178592 L2.75626135,7.57178592 Z M21.5705137,7.57178592 C22.0252471,6.88284463 22.2281914,6.05881876 22.1452256,5.23825121 C22.062764,4.41601797 21.6919433,3.64916059 21.0980688,3.072731 C20.5247391,2.47239526 19.7535883,2.09818331 18.9259748,2.01869132 C18.0993771,1.93451775 17.2688885,2.13631451 16.5738331,2.59022782 L17.6325129,3.64570352 C18.0516637,3.45040462 18.4823375,3.39152774 18.9259748,3.46620085 C19.3681717,3.54087396 19.7556341,3.74191695 20.0854812,4.07220187 C20.4153284,4.40105076 20.6184221,4.78590448 20.6933219,5.22676304 C20.7682217,5.6676216 20.7077257,6.098428 20.5132743,6.51774624 L21.5705137,7.57178592 L21.5705137,7.57178592 Z" id="形状" fill="#6B7B8D"></path>
            </g>
        </g>
    </g>
</svg>
